svgs/light/money-simple-from-bracket.svg

<svg xmlns="http://www.w3.org/2000/svg" viewBox="0 0 640 512"><!--! Font Awesome Pro 6.4.0 by @fontawesome - https://fontawesome.com License - https://fontawesome.com/license (Commercial License) Copyright 2023 Fonticons, Inc. --><path d="M80 32C53.5 32 32 53.5 32 80v96c0 8.8-7.2 16-16 16s-16-7.2-16-16V80C0 35.8 35.8 0 80 0H560c44.2 0 80 35.8 80 80v96c0 8.8-7.2 16-16 16s-16-7.2-16-16V80c0-26.5-21.5-48-48-48H80zM496 96c8.8 0 16 7.2 16 16l0 344c0 30.9-25.1 56-56 56H184c-30.9 0-56-25.1-56-56l0-344c0-8.8 7.2-16 16-16s16 7.2 16 16l0 344c0 13.3 10.7 24 24 24H456c13.3 0 24-10.7 24-24l0-344c0-8.8 7.2-16 16-16zM320 208c-47 0-80 31.3-80 64s33 64 80 64s80-31.3 80-64s-33-64-80-64zm112 64c0 55.6-53 96-112 96s-112-40.4-112-96s53-96 112-96s112 40.4 112 96z"/></svg>

<svg xmlns="http://www.w3.org/2000/svg" viewBox="0 0 640 512"><!--! Font Awesome Pro 6.3.0 by @fontawesome - https://fontawesome.com License - https://fontawesome.com/license (Commercial License) Copyright 2023 Fonticons, Inc. --><path d="M80 32C53.49 32 32 53.49 32 80V176C32 184.8 24.84 192 16 192C7.164 192 0 184.8 0 176V80C0 35.82 35.82 0 80 0H560C604.2 0 640 35.82 640 80V176C640 184.8 632.8 192 624 192C615.2 192 608 184.8 608 176V80C608 53.49 586.5 32 560 32H80zM496 96C504.8 96 512 103.2 512 112V456C512 486.9 486.9 512 456 512H184C153.1 512 128 486.9 128 456V112C128 103.2 135.2 96 144 96C152.8 96 160 103.2 160 112V456C160 469.3 170.7 480 184 480H456C469.3 480 480 469.3 480 456V112C480 103.2 487.2 96 496 96zM320 368C260.1 368 208 327.6 208 272C208 216.4 260.1 176 320 176C379 176 432 216.4 432 272C432 327.6 379 368 320 368zM240 272C240 304.7 272.1 336 320 336C367 336 400 304.7 400 272C400 239.3 367 208 320 208C272.1 208 240 239.3 240 272z"/></svg>
